X:86
T:Fisherman's Island
T:Reavy's
T:Reavy's #9
R:reel
C:Ed Reavy (1898-1988)
Z:id:hn-reel-86
M:C|
K:D
DEFA d2dA|BAGB AFDF|GEED EFGA|(3Bcd ed cAAg|
fd~d2 ecAc|~d3A BAGF|EFGA (3Bcd ed|1 cAGE EDCE:|2 cAGE EDD2||
|:fd~d2 AF~F2|DFAd f2ef|gece bece|dfed cAGE|
DF~F2 Adfd|Bg~g2 edcB|Adfa gbed|1 cAGE EDD2:|2 cAGE EDCE||
<end>
<start>
